X:1
T:Title
%%score { ( 1 3 ) | 2 }
L:1/8
M:4/4
K:Db
V:1 treble nm="Grand Piano"
V:3 treble 
V:2 bass 
V:1
 z4 z2[Q:1/4=100] [FA]2 | F>F F>[EG] [FA]>[FA] [FA][FA] | [GB][Bd][Ac][GB] [FA]3 [FA] | %3
 F>F F[EG] [FA]>[FA] [FA][Fd] | ccBB [CA]4 | [Gc]2 [Ge]2 [Fd]2 [FA]2 | [GB][Bd][Ac][GB] [FA]4 | %7
 [Gc]2 [Ge]2 [Fd]2 Ad | ccBB A2 G2 | F>F FE D2 D2 | [FA]>[FA] [FA][EG] [DF]4 | %11
[M:17/16] [Fd]>[Fd][Fd][FA][GB][Gc][Fd]3/2[B,EG] |[M:4/4] [DF]2[K:bass] [G,CE]2 [F,D]4 |] %13
V:2
 z4 z2 [D,D]2 | [D,A,D]>[D,A,D] [D,A,D]>[D,A,] [D,D]>[D,D] [D,D][D,D] | %2
 [G,D][G,D][G,D][G,D] [D,D]3 [D,D] | [D,A,D]>[D,A,D] [D,A,D][D,A,] [D,D]>[D,D] [D,D][D,A,] | %4
 [E,A,E][E,A,E][E,=G,D][E,G,D] [A,,A,]4 | [A,E]2 [A,C]2 [D,A,]2 [D,D]2 | %6
 [G,D][G,D][G,D][G,D] [D,D]4 | [A,E]2 [A,C]2 [D,A,]2 [D,A,]2 | %8
 [E,A,E][E,A,E][E,=G,D][E,G,D] [A,,A,]4 | [D,A,D]>[D,A,D] [D,A,D][D,G,C] [D,F,]2 [D,F,]2 | %10
 [D,D]>[D,D] [D,D][D,A,] [D,A,]4 |[M:17/16] [D,A,]>[D,A,][D,A,][D,D][G,D][E,A,][D,A,]3/2G, | %12
[M:4/4] A,2 A,,2 D,4 |] %13
V:3
 x8 | x8 | x8 | x8 | x8 | x8 | x8 | z4 z2 F2 | z4 C4 | x8 | x8 |[M:17/16] x17/2 | %12
[M:4/4] x2[K:bass] x6 |] %13

